X:1
T:Hull a hó
O:Gazdag Erzsi
M:2/4
L:1/8
W:Hull a hó, hull a hó, mesebeli álom,
W:Télapó zúzmarát fújdogál az ágon.
W:
W:A kis nyúl didereg, megbújik a földön:
W:"Nem baj, ha hull a hó, csak vadász ne jöjjön!"
W:
W:Parányi ökörszem kuporog az ágon,
W:Vidáman csipogja: "Süt még nap a nyáron!"
K:C
AG E2 | GE D2 | CD EA | E2 E2|
w:Hull a hó, hull a hó, me-se be-li á-lom,
AG E2 | GE D2 | CD ED | A,2 A,2 |]
w:Tél-a-pó zúz-ma-rát, fúj-do-gál az á-gon.
